X:1
T:Haec dicit Dominus - Webbe
T:#
%%score { 1 | 2 } 3 4 { ( 5 7 ) | ( 6 8 ) }
L:1/8
Q:1/4=72
M:4/4
K:F
V:1 treble nm="S" snm="S"
V:2 treble 
V:3 treble-8 nm="T" snm="T"
V:4 bass nm="B" snm="B"
V:5 treble nm="Midi_20"
V:7 treble 
V:6 bass 
V:8 bass 
V:1
"^Haec dicit Dominus""^for Pentecost XXIII\nfrom Jer. 33:10a,11a""^largo""^Samuel Webbe\n(1740-1816)" z8 | %1
w: |
 z8 |!f! c4 A2 F2 | C3 C[Q:1/4=60] !fermata!C4 ||[M:3/4]"^andantino"[Q:1/4=90] z2 z2"^Solo" (c>B) | %5
w: |Haec di- cit|Do- mi- nus:|Ad\- *|
 A2 A2 A2 | G2 (c>B) (A>G) |[M:3/4][Q:1/4=90][Q:1/4=90][Q:1/4=90][Q:1/4=90] F2 F4 | E2 A2 z A | %9
w: huc au- di-|e- tur * in *|lo- co|i- sto, in|
 (D2 G>F) (E>D) | C2 F2 z F | (G2 c2) B2 | A2 G2!mf! A2 | B>B B2 c2 | d>d d4 | z2 d2 d2 | d>c c4 | %17
w: lo\- * * co *|i- sto, in|lo\- * co|i- sto vox|gau- di- i, vox|gau- di- i|et lae-|ti- ti- ae,|
 z6 | z6 | z2 z2 f2 | e>d c2 B2 | (A>B) c2 z2 | d4 Te2 | f>c c4 | z2 d2 Te2 | f>c c4 | %26
w: ||vox|spon- si et vox|spon\- * sae,|vox di-|cen- ti- um:|vox di-|cen- ti- um:|
"^Chorus" z2!f! A2 A2 | G3 c c2 | z2 d2 d2 | G3 A B2 | A3 A d2 | =B4 (c2- | c>d) T=B3 B | c4 z2 | %34
w: Con- fi-|te- mi- ni,|con- fi-|te- mi- ni|Do- mi- no|ex- er\-|* * ci- ti-|um|
 c3 d e2 | f2 c2 z2 | z2 c2 B2 | A3 B c2 | z6 | z6 | z6 | z2 z2 cB | A2 A2 cB | A2 AA AA | %44
w: quo- ni- am|bo- nus,|bo- nus|Do- mi- nus||||in ae-|ter- num, in ae-|ter- num mi- se- ri-|
 (Bcdc) BA | A2 G2 (c>B) | A2 A2 A2 | G2 (c>B) (A>G) | F2 F4 | E2 A2 z A | (D2 G>F) (E>D) | %51
w: cor\- * * * di- a|e- jus. Ad\- *|huc au- di-|e tur * in *|lo- co|i- sto, in|lo\- * * co *|
 C2 F2 z F | (G2 c2) B2 | A2 G2 A2 | B>B B2 c2 | d>d d4 | z2 d2 d2 | d>c c4 | z6 | z6 | %60
w: i- sto, in|lo\- * co|i- sto vox|gau- di- i, vox|gau- di- i|et lae-|ti- ti- ae.|||
 z2 z2!f! f2 | e>d c2 B2 | (A>B) c2 AA | A4 c2 | f2 f2 z f |({g} f2 ed) (cB) | A2 G2 A2 | %67
w: Vox|spon- si et vox|spon\- * sae, et por-|tan- tium|vo- ta, por-|* * * tium *|vo- ta in|
 (Bd/c/ Bc) (de) | f>c[Q:1/4=45] !fermata!c2[Q:1/4=90] c2 | (c/B/c/d/ A2) TG2 | %70
w: do\- * * * * mum *|Do- mi- ni in|do\- * * * * mum|
 A>G[Q:1/4=45] !fermata!F2[Q:1/4=72] A2 |[M:3/4]"^adagio" B4 c4 | B6 x2 | B2 A8 |] %74
w: Do- mi- ni, in|do- mum|Do-|mi- ni.|
V:2
 z8 | z8 |!f! c4 A2 F2 | C3 C !fermata!C4 ||[M:3/4] z6 | z6 | z6 |[M:3/4] z6 | z6 | z6 | z6 | z6 | %12
w: ||Haec di- cit|Do- mi- nus:|||||||||
 z6 | z2 z2"^Solo" A2 | B>B B4 | z2 B2 B2 | B>A A4 | z2 z2 f2 | e>d c2 B2 | (A>B) c2 d2 | %20
w: |vox|gau- di- i|et lae-|ti- ti- ae,|vox|spon- si et vox|spon\- * sae, vox|
 c>B A2 G2 | (F>G) A2 z2 | B4 TG2 | A>A A4 | z2 B2 TG2 | A>A A4 | z2!f! F2 F2 | E3 E F2 | %28
w: spon- si et vox|spon\- * sae,|vox di-|cen- ti- um:|vox di-|cen- ti- um:|Con- fi-|te- mi- ni,|
 z2 F2 F2 | E3 F G2 | F3 F F2 | F4 (E>F) | G4 F2 | E4 z2 | z6 | z6 | z2 A2 G2 | F3 G A2 | z6 | %39
w: con- fi-|te- mi- ni|Do- mi- no|ex- er\- *|ci- ti-|um|||bo- nus|Do- mi- nus||
 z2 z2 F2- | F2 D2 (GF) | E3 E E2 | F2 F2 AG | F2 FC CF | D3 D D2 | C2 C2 z2 | z6 | z6 | z6 | z6 | %50
w: mi\-|* se- ri\- *|cor- di- a|e- jus, in ae-|ter- num mi- se- ri-|cor- di- a|e- jus.|||||
 z6 | z2 z2 z A | (GFGE) (FG) | (AF) E2 F2 | D>D D2 F2 | F>F F4 | z2 F2 F2 | F>F F4 | z6 | z6 | %60
w: |In|lo\- * * * co *|i\- * sto vox|gau- di- i, vox|gau- di- i|et lae-|ti- ti- ae.|||
 z2 z2!f! d2 | c>B A2 G2 | (F>G) A2 CC | C4 C2 | D2 D2 z D | D4 F2 | F2 E2 F2 | D4 D2 | %68
w: Vox|spon- si et vox|spon\- * sae, et por-|tan- tium|vo- ta, por-|tan- tium|vo- ta in|do- mum|
 C>C !fermata!C2 F2 | (D2 C2) TE2 | F>E !fermata!F2 F2 |[M:3/4] F4 F4 | F6 F2 | F8 x2 |] %74
w: Do- mi- ni in|do\- * mum|Do- mi- ni, in|do- mum|Do- mi-|ni.|
V:3
 z8 | z8 |!f! c4 A2 F2 | C3 C !fermata!C4 ||[M:3/4] z6 | z6 | z6 |[M:3/4] z6 | z6 | z6 | z6 | z6 | %12
w: ||Haec di- cit|Do- mi- nus:|||||||||
 z6 | z6 | z6 |[M:3/4] z6 | z6 | z6 | z6 | z6 | z6 | z6 |[M:3/4][K:treble-8] z6 | z6 | z6 | z6 | %26
w: ||||||||||||||
 z2!f! c2 c2 | c3 c c2 | z2 B2 d2 | c3 c c2 | c3 c f2 | d4 (c>d) | e2 Td4 | c4 z2 | z6 | z6 | z6 | %37
w: Con- fi-|te- mi- ni,|con- fi-|te- mi- ni|Do- mi- no|ex- er\- *|ci- ti-|um||||
 z6 | A>A A2 cc | f2 F4 | d2 d2 d2 | c3 G G2 | A2 c2 z2 | z2 z F FF | (F2 BA) GF | F2 E2 e2 | %46
w: |quo- ni- am in ae-|ter- num|mi- se- ri-|cor- di- a|e- jus,|mi- se- ri-|cor\- * * di- a|e- jus. Ad-|
 f2 f2 f2 | f2 e2 e2- | e2 d2 d2 | d2 c2 c2- | c2 B2 B2 | B2 A2 f2 | (edec) (de) | f2 c2 F2 | %54
w: huc au- di-|e- tur in|* lo- co|i- sto, in|* lo- co|i- sto, in|lo\- * * * co *|i- sto vox|
 B>B B2 A2 | B>B B4 | z2 B2 B2 | B>A A4 | z2 z2!f! f2 | e>d c2 B2 | (A>B) c2 z2 | z6 | z2 z2 FF | %63
w: gau- di- i, vox|gau- di- i|et lae-|ti- ti- ae.|Vox|spon- si et vox|spon\- * sae,||et por-|
 F4 A2 | A2 A2 z A | (BdcB) (AG) | F2 G2 F2 | F4 (FG) | A>A !fermata!F2 F2 | (F3 c) c2 | %70
w: tan- tium|vo- ta, por-|tan\- * * * tium *|vo- ta in|do- mum *|Do- mi- ni in|do\- * mum|
 c>B !fermata!A2 c2 |[M:4/4] d4 c4 | d6 d2 | c8 x2 |] %74
w: Do- mi- ni, in|do- mum|Do- mi-|ni.|
V:4
 A,4 A,2 F,2 | C3 C C4 |!f! C4 A,2 F,2 | C,3 C, !fermata!C,4 ||[M:3/4] z6 | z6 | z6 |[M:3/4] z6 | %8
w: Haec di- cit|Do- mi- nus,|haec di- cit|Do- mi- nus:|||||
 z6 | z6 | z6 | z6 | z6 | z6 | z6 |[M:3/4] z6 | z6 | z6 | z6 | z6 | z6 | z6 |[M:3/4] z6 | z6 | z6 | %25
w: |||||||||||||||||
 z6 | z2!f! F,2 F,2 | C3 B, A,2 | z2 B,2 B,,2 | C,3 C, C,2 | F,3 F, D,2 | G,4 A,2 | G,4 G,2 | %33
w: |Con- fi-|te- mi- ni,|con- fi-|te- mi- ni|Do- mi- no|ex- er-|ci- ti-|
 C,4 z2 | z6 | z6 | z6 | z6 | F,>F, F,2 F,F, | D,2 D,4 | B,,2 B,,2 B,,2 | C,3 C, C,2 | F,2 F,2 z2 | %43
w: um|||||quo- ni- am in ae-|ter- num|mi- se- ri-|cor- di- a|e- jus,|
 z2 z F, F,F, | B,,3 B,, B,,2 | C,2 C,2 z2 | z6 | z6 | z6 | z6 | z6 | z6 | z6 | z6 | z2 z2 F,2 | %55
w: mi- se- ri-|cor- di- a|e- jus.|||||||||vox|
 B,,>B,, B,,4 | z2 B,,2 B,,2 | F,>F, F,4 | z6 | z6 | z6 | z6 | z2 z2 F,F, | F,4 F,2 | %64
w: gau- di- i|et lae-|ti- ti- ae.|||||et por-|tan- tium|
 D,2 D,2 z D, | B,,4 B,,2 | C,2 C,2 F,2 | B,,4 B,,2 | A,,>A,, !fermata!A,,2 A,,2 | B,,2 C,4 | %70
w: vo- ta, por-|tan- tium|vo- ta in|do- mum|Do- mi- ni in|do- mum|
 F,>F, !fermata!F,2 F,2 |[M:4/4] B,4 A,4 | B,6 B,2 | F,8 x2 |] %74
w: Do- mi- ni, in|do- mum|Do- mi-|ni.|
V:5
!p! [CFA]8 | [CG]8 |!f! [CFc]4 [CFA]2 [G,DF]2 |[K:bass] [C,E,G,C]3 [C,E,G,C] !fermata![C,E,G,C]4 || %4
[M:3/4][K:treble]!p! z2 z2 c>B | A2 A2 A2 | G2 (c>BA>G) |[M:3/4] F2 F4 | E2 A2 z A | D2 (G>FE>D) | %10
 (C2 F2) z F |!<(! (G2 c2!<)! B2) |!>(! (A2!>)! G2)!mf! A2 | B>B B2 [Ac]2 | %14
 [FBd]>[FBd] [FBd]2 [DF][DFB] | [FBd]>[FBd] [FBd]2 [FBd]2 | ([Bd]>[Ac]) [Ac]CFA | [Ac]FAc [Af]2 | %18
 [Ge]>[Fd] (c2 B2) | ([FA]>[GB] [Ac]2) [df]2 | [ce]>[Bd] ([Ac]2 [GB]2) | ([FA]>[GB] [Ac]2) [Ac]2 | %22
!<(! [Bd]4!<)! [Ge]2 | [Af]>!>(![Ac]!>)! [Ac]4 | [FBd]2 ([Bd]2 [Ge]2) | [Af]>[Ac] [Ac]4 | %26
 [CFA]2!f! [CFA]2 [CFA]2 | ([EG]3 [EGc]) [CFc]2 | [DF]2 [FBd]2 [DFd]2 | ([EG]3 [FA] [GB]2) | %30
 A3 A [FAd]2 | [DF=B]4 (c2- | c>d) =B3 B | [CEc]4 z2 | [Ec]3 [Fd] [Gce]2 | ([cf]2 c2) EF | %36
 [Ac]2 [Ac]2 [GB]2 | ([FA]3 [GB] [Ac]2) |[K:bass] x6 |[K:treble] x6 | x6 | x2 x2 cB | %42
 [FA]2 [FA]2 [Ac][GB] | [FA]2 [FA][CA] [CA][FA] | (BcdcBA) | (A2 G2) c>B | [FA]2 [FA]2 [FA]2- | %47
 [FG]2 c>BA>G | x2 F4 | x4 z A | D2 G>FE>D | (C2 F2) z F | G2 c2 B2 | [FA]2 [CEG]2 [CFA]2 | %54
 [DFB]>[DFB] [DFB]2 [FAc]2 | [FBd]>[FBd] [FBd]4 | [DF][FBd] [FBd]2 [FBd]2 | [Bd]>[Ac] [FAc]4 | %58
 z2 z2!mf! F2 | E>D C2 B,2 | [F,A,]>[G,B,] [A,C]2!f! [df]2 | [ce]>[Bd] [Ac]2 [EGB]2 | %62
 A>[GB] [Ac]2!f! [FA]A | [FA]4 [FAc]2 | [Adf]2 [Adf]2 z [Af] | ([Bg][df][ce][Bd][Ac][GB]) | %66
 ([FA]2 [EG]2) [CFA]2 | Bd/c/ Bc de | [Fcf]>[Fc] !fermata![CFc]2 [CFc]2 | (c/B/c/d/) [FA]2 [EB]2 | %70
 ([CFA]>[B,EG]) !fermata![A,F]2 [CFA]2 |[M:3/4] [DFB]4 [CFc]4 | [DFB]6 x2 | [DFB]2 [CFA]8 |] %74
V:6
 F,8 | E,8 | A,,6 =B,,2 | C,4 !fermata!C,,4 ||[M:3/4] F,2 F,,2 z2 | F2 F2 F2- | F2 E2 E2- | %7
[M:3/4] E2 D2 D2- | D2 C2 C2- | C2 B,2 B,2- | B,2 A,2 (A,F) | (EDECDE) | F2 C2 F2 | D2 D2 F2 | %14
 B,2 B,2 B,2 | B,2 B,2 B,2 | F2 F z z2 | F,2 F,,2 F,2 | C,3 D, E,C, | F,2 F,,2 z2 | C4 E2 | F4 z2 | %22
 z2 B,2 C2 | F4 F,2 | B,2 B,,2 C,2 | F,4 F,,2 | [F,,C,F,]2 [F,,F,]2 [F,,F,]2 | %27
 [C,C]3 [B,,B,] [A,,A,]2 | B,,2 B,2 B,,2 | C,2 C,2 C,2 | F,CA,F, D,F, | G,2 G,2 A,2 | G,4 G,2 | %33
 C,4 z2 | C4 B,2 | A,4 z2 | z2 C2 E2 | F4 F,2 | F,,4 F,,2 | [D,F,]2 [D,F,]4 | B,,2 B,,2 B,,2 | %41
 C,2 C,2 [C,G,]-[C,C] | [F,C]2 [F,C]2 z2 | z2 F,F,F,F, | F,2 B,A, G,F, | F,2 E,2 z2 | z6 | z6 | %48
 z6 | z6 | z2 B,2 B,2 | B,2 A,2 A,2 |[I:staff -1] ED[EG][CE][DF][EG] |[I:staff +1] z2 z2 F,2 | %54
 B,>B, B,2 [F,,F,]2 | B,,>B,, B,,4 | B,,2 B,,2 B,,2 | F,>F, F,4 | F,2 F,,2 x2 | %59
 C,2 [C,E,][D,F,][E,G,][C,E,] | F,2 F,,2 z2 | C4 z2 | z2 z2 F,2 | F,C C2 F,2 | D,,4 [D,,D,]2 | %65
 [B,,,B,,]4 [B,,,B,,]2 | [C,,C,]4 F,2 | [B,,F,]4- [B,,F,][B,,G,] | %68
 [A,,A,]>[A,,A,] !fermata![A,,A,]2 [A,,F,]2 | [B,,F,]2 C,2 C,2 | F,2 !fermata![F,,F,]2 F,2 | %71
[M:3/4] [B,,B,]4 [A,,A,]4 | [B,,-B,]4 [B,,F,]4 | [F,,F,]8 x2 |] %74
V:7
 x8 | x8 | x8 |[K:bass] x8 ||[M:3/4][K:treble] x6 | x6 | x6 |[M:3/4] x6 | x6 | x6 | x6 | x6 | x6 | %13
 x6 | x6 | x6 | x6 | x6 | x2 EF GE | x6 | x6 | x6 | x6 | x6 | x6 | x6 | x6 | x6 | x6 | C4 C2 | %30
 [CF]4 x2 | x4 [CE]>[DF] | [EG]2 [DG]2- [DF]2 | x6 | x6 | F4 x2 | x6 | x6 | %38
[K:bass] [F,A,]>[F,A,] [F,A,]2 [F,A,C][F,A,C] |[K:treble] F2 z2 F2- | [DF]2 [B,D]2 [DG]-[DF] | %41
 [CE]3 [G,E] E2 | x2 x2 CE | x6 | D4 D2 | C4 E2 | x6 | x2 E2 E2- | [EF]2 D2 D2- | [DE]2 [CA]2 C2- | %50
 C2 x4 | x6 | x6 | x6 | x6 | x6 | x6 | F2 x2 x2 | x2 x2[I:staff +1] A,2 | G,>F,[I:staff -1] x4 | %60
 x6 | x6 | F2 x2 C2 | x6 |[I:staff +1] D,2 D,2[I:staff -1] x2 | x6 | x6 | D4 x2 | x6 | D2 C4 | x6 | %71
[M:3/4] x8 | x8 | x8 x2 |] %74
V:8
 x8 | x8 | x8 | x8 ||[M:3/4] x6 | x6 | x6 |[M:3/4] x6 | x6 | x6 | x6 | x6 | x6 | x6 | x6 | x6 | %16
 x6 | x6 | x6 | x6 | x6 | x6 | x6 | x6 | x6 | x6 | x6 | x6 | x6 | x6 | x6 | x6 | x6 | x6 | x6 | %35
 x6 | x6 | x6 | x6 | x6 | x6 | x6 | x6 | x6 | B,,4 B,,2 | C,4 x2 | x6 | x6 | x6 | x6 | x6 | x6 | %52
 x6 | x6 | x6 | x6 | x6 | x6 | x6 | x6 | x6 | x6 | x6 | x6 | x6 | x6 | x6 | x6 | x6 | x6 | x6 | %71
[M:3/4] x8 | x8 | x10 |] %74

